assets/icons/document.svg

<svg width="18" height="18" viewBox="0 0 18 18" fill="none" xmlns="http://www.w3.org/2000/svg">
<path d="M15.0469 7.875H10.125C9.67745 7.875 9.24822 7.69721 8.93176 7.38074C8.61529 7.06428 8.4375 6.63505 8.4375 6.1875V1.26562C8.4375 1.22833 8.42268 1.19256 8.39631 1.16619C8.36994 1.13982 8.33417 1.125 8.29688 1.125H5.0625C4.46576 1.125 3.89347 1.36205 3.47151 1.78401C3.04955 2.20597 2.8125 2.77826 2.8125 3.375V14.625C2.8125 15.2217 3.04955 15.794 3.47151 16.216C3.89347 16.6379 4.46576 16.875 5.0625 16.875H12.9375C13.5342 16.875 14.1065 16.6379 14.5285 16.216C14.9504 15.794 15.1875 15.2217 15.1875 14.625V8.01562C15.1875 7.97833 15.1727 7.94256 15.1463 7.91619C15.1199 7.88982 15.0842 7.875 15.0469 7.875Z" fill="_COLOR_VAR_"/>
<path d="M14.7382 6.62998L9.68238 1.57416C9.67255 1.56438 9.66005 1.55773 9.64645 1.55505C9.63285 1.55236 9.61876 1.55375 9.60594 1.55905C9.59313 1.56434 9.58217 1.57331 9.57444 1.58482C9.56671 1.59633 9.56256 1.60986 9.5625 1.62373V6.18736C9.5625 6.33655 9.62176 6.47962 9.72725 6.58511C9.83274 6.6906 9.97582 6.74986 10.125 6.74986H14.6886C14.7025 6.7498 14.716 6.74565 14.7275 6.73792C14.7391 6.73019 14.748 6.71923 14.7533 6.70642C14.7586 6.6936 14.76 6.67951 14.7573 6.66591C14.7546 6.65231 14.748 6.63981 14.7382 6.62998Z" fill="_COLOR_VAR_"/>
</svg>

<svg xmlns="http://www.w3.org/2000/svg" width="18" height="18"><path d="M15.047 7.875h-4.922a1.687 1.687 0 0 1-1.687-1.687V1.266a.14.14 0 0 0-.141-.141H5.062a2.25 2.25 0 0 0-2.25 2.25v11.25a2.25 2.25 0 0 0 2.25 2.25h7.876a2.25 2.25 0 0 0 2.25-2.25v-6.61a.14.14 0 0 0-.141-.14"/><path d="M14.738 6.63 9.682 1.574a.07.07 0 0 0-.12.05v4.563a.56.56 0 0 0 .563.563h4.564a.07.07 0 0 0 .05-.12"/></svg>
